!! 00000] TT[WS
!!!OTL: Songhe gege
!!!ARE: Asia, China, Shanxi Xingxian
!! Ethnic Group: Han
!! WII, 91 (2)
!!!SCT: J0536
!!!YEM: Copyright 1995, estate of Helmut Schaffrath.
**kern
*ICvox
*Ivox
*M2/4
*k[b-]
*F:
{4f
8f
8d
=1
4cc
4cc
=2
8dd
8ff
8cc
8a
=3
8g
8f
4g}
=4
{8g
8a
4cc
=5
8ff
8dd
4cc
=6
8a
8g
8f
8d
=7
2c}
=8
{8a
8g
4f
=9
8g
8cc
8a
8cc
=10
8g
8a
8f
8c
=11
2d}
=12
{8g
8a
4cc
=13
8ff
8dd
4cc
=14
8f
8f
8d
8f
=15
8g
8a
8f
8d
=16
2c}
==
!!!AGN: Xiaodiao. Qingge, Sichun
!!!ONB: ESAC (Essen Associative Code) Database: CHINA
!!!AMT: simple duple
!!!AIN: vox
!!!EED: Helmut Schaffrath
!!!EEV: 1.0
*-
